X: 115
T:A cruz da Lobeira
M:6/8
L:1/8
Q:200
C:Trad
S:Rep. "Os Campaneiros"
R:Muiñeira
K:F
FAc |"~"D2C FAc |"~"D2 C/"F"G CEG | BAG F2A| C3 FAc |"~"D2C FAc |"~"D2 C
/"F"G CEG | BAG F3 :| 
|: F2 "F."c F"F."cF/"F."c/ | FEF C2 E | C2 "F."G CEG | BAG A2 F|
C3 F"F."cF/"F."c/| FEF C2 E |C2 "F."cCEG | BAG F3 :||

